packages/kaspersky-hexa-ui-icons/src/iconsSVGs/64x42/FlagNz.svg

<svg xmlns="http://www.w3.org/2000/svg" width="64" height="42" fill="none" viewBox="0 0 64 42"><g clip-path="url(#a)"><rect width="64" height="42" fill="#fff" rx="5"/><path fill="#0a17a7" d="M0 0h64v42H0z"/><path fill="#ca1931" fill-rule="evenodd" d="m47.2 36.4-1.98.58.58-1.98-.58-1.98 1.98.58 1.98-.58L48.6 35l.58 1.98zm0-26.6-1.98.58.58-1.98-.58-1.98L47.2 7l1.98-.58-.58 1.98.58 1.98zm8.4 8.4-1.98.58.58-1.98-.58-1.98 1.98.58 1.98-.58L57 16.8l.58 1.98zM38.8 21l-1.98.58.58-1.98-.58-1.98 1.98.58 1.98-.58-.58 1.98.58 1.98z" clip-rule="evenodd"/><path fill="#042c90" d="M0 0h26.7134v21H0z"/><mask id="b" width="27" height="21" x="0" y="0" maskUnits="userSpaceOnUse" style="mask-type:alpha"><path fill="#0a17a7" d="M0 0h26.7133v21H0z"/></mask><g mask="url(#b)"><mask id="c" width="35" height="27" x="-4" y="-3" fill="#000" maskUnits="userSpaceOnUse"><path fill="#fff" d="M-4-3h35v27H-4z"/><path fill-rule="evenodd" d="M10.3885 9 0 0h1.484l10.3886 7.5h2.9682L26.7134 0v1.5L16.3248 9v3l10.3886 9h-1.2582a.7.7 0 0 1-.4091-.1322L14.8408 13.5h-2.9682L0 21v-1.5L10.3885 12z" clip-rule="evenodd"/></mask><path fill="#ff2e3b" fill-rule="evenodd" d="M10.3885 9 0 0h1.484l10.3886 7.5h2.9682L26.7134 0v1.5L16.3248 9v3l10.3886 9h-1.2582a.7.7 0 0 1-.4091-.1322L14.8408 13.5h-2.9682L0 21v-1.5L10.3885 12z" clip-rule="evenodd"/><path stroke="#fff" stroke-width="3" d="M10.3885 9 0 0h1.484l10.3886 7.5h2.9682L26.7134 0v1.5L16.3248 9v3l10.3886 9h-1.2582a.7.7 0 0 1-.4091-.1322L14.8408 13.5h-2.9682L0 21v-1.5L10.3885 12z" clip-rule="evenodd" mask="url(#c)"/><path fill="#fff" fill-rule="evenodd" d="M0 7.5v6h10.3885v7.6024c0 .7719.6258 1.3976 1.3976 1.3976h3.1411c.7719 0 1.3976-.6257 1.3976-1.3976V13.5h10.4751c.7718 0 1.3975-.6257 1.3975-1.3976V8.8976c0-.7719-.6257-1.3976-1.3975-1.3976H16.3248V0h-5.9363v7.5z" clip-rule="evenodd"/><path fill="#ff2e3b" fill-rule="evenodd" d="M0 9h11.8726V0h2.9682v9h11.8726v3H14.8408v9h-2.9682v-9H0z" clip-rule="evenodd"/></g></g><defs><clipPath id="a"><rect width="64" height="42" fill="#fff" rx="5"/></clipPath></defs></svg>

<svg width="64" height="42" viewBox="0 0 64 42" fill="none" xmlns="http://www.w3.org/2000/svg">
<g clip-path="url(#clip0_37941_2321)">
<rect width="64" height="42" rx="5" fill="white"/>
<rect width="64" height="42" fill="#0A17A7"/>
<path fill-rule="evenodd" clip-rule="evenodd" d="M47.1999 36.4001L45.22 36.98L45.7999 35.0001L45.22 33.0202L47.1999 33.6001L49.1798 33.0202L48.5999 35.0001L49.1798 36.98L47.1999 36.4001Z" fill="#CA1931"/>
<path fill-rule="evenodd" clip-rule="evenodd" d="M47.1999 9.79985L45.22 10.3798L45.7999 8.39985L45.22 6.41995L47.1999 6.99985L49.1798 6.41995L48.5999 8.39985L49.1798 10.3798L47.1999 9.79985Z" fill="#CA1931"/>
<path fill-rule="evenodd" clip-rule="evenodd" d="M55.5998 18.1999L53.6199 18.7798L54.1998 16.7999L53.6199 14.82L55.5998 15.3999L57.5797 14.82L56.9998 16.7999L57.5797 18.7798L55.5998 18.1999Z" fill="#CA1931"/>
<path fill-rule="evenodd" clip-rule="evenodd" d="M38.7999 21L36.82 21.5799L37.3999 19.6L36.82 17.6201L38.7999 18.2L40.7798 17.6201L40.1999 19.6L40.7798 21.5799L38.7999 21Z" fill="#CA1931"/>
<rect width="26.7134" height="21" fill="#042C90"/>
<mask id="mask0_37941_2321" style="mask-type:alpha" maskUnits="userSpaceOnUse" x="0" y="0" width="27" height="21">
<rect width="26.7133" height="21" fill="#0A17A7"/>
</mask>
<g mask="url(#mask0_37941_2321)">
<mask id="path-9-outside-1_37941_2321" maskUnits="userSpaceOnUse" x="-4" y="-3" width="35" height="27" fill="black">
<rect fill="white" x="-4" y="-3" width="35" height="27"/>
<path fill-rule="evenodd" clip-rule="evenodd" d="M10.3885 9L0 0H1.48408L11.8726 7.5H14.8408L26.7134 0V1.5L16.3248 9V12L26.7134 21H25.4552C25.3083 21 25.1652 20.9537 25.0461 20.8678L14.8408 13.5H11.8726L0 21V19.5L10.3885 12V9Z"/>
</mask>
<path fill-rule="evenodd" clip-rule="evenodd" d="M10.3885 9L0 0H1.48408L11.8726 7.5H14.8408L26.7134 0V1.5L16.3248 9V12L26.7134 21H25.4552C25.3083 21 25.1652 20.9537 25.0461 20.8678L14.8408 13.5H11.8726L0 21V19.5L10.3885 12V9Z" fill="#FF2E3B"/>
<path fill-rule="evenodd" clip-rule="evenodd" d="M10.3885 9L0 0H1.48408L11.8726 7.5H14.8408L26.7134 0V1.5L16.3248 9V12L26.7134 21H25.4552C25.3083 21 25.1652 20.9537 25.0461 20.8678L14.8408 13.5H11.8726L0 21V19.5L10.3885 12V9Z" stroke="white" stroke-width="2.7952" mask="url(#path-9-outside-1_37941_2321)"/>
<path fill-rule="evenodd" clip-rule="evenodd" d="M0 7.5V13.5H10.3885V21.1024C10.3885 21.8743 11.0143 22.5 11.7861 22.5H14.9272C15.6991 22.5 16.3248 21.8743 16.3248 21.1024V13.5H26.7999C27.5717 13.5 28.1974 12.8743 28.1974 12.1024V8.8976C28.1974 8.12573 27.5717 7.5 26.7999 7.5H16.3248V0H10.3885V7.5H0Z" fill="white"/>
<path fill-rule="evenodd" clip-rule="evenodd" d="M0 9H11.8726V7.5V0H14.8408V7.5V9H26.7134V12H14.8408V13.5V21H11.8726V13.5V12H0V9Z" fill="#FF2E3B"/>
</g>
</g>
<defs>
<clipPath id="clip0_37941_2321">
<rect width="64" height="42" rx="5" fill="white"/>
</clipPath>
</defs>
</svg>
